X:26
T:Laride
I:last changed 14/2/2016
F:http://www.campin.me.uk/Music/Edinbal.abc
C:Breton
S:Blowzabella
M:2/2
L:1/8
Q:1/2=120
K:AMin
A4 e4|d2f2 e4|d3 e d2B2|c2d2 edcB|
A4 e4|d2f2 e4|d3 e d2B2|c2B2 A4 :|
A4 c4|c2A2 B4|B3c  d2B2|c2d2 edcB|
A4 c4|c2A2 B4|B3 c d2e2|c2B2 A4 :|

